; generated by Slic3r 1.3.1-dev on 2020-08-25 at 10:26:23

; external perimeters extrusion width = 0.44mm (3.38mm^3/s)
; perimeters extrusion width = 0.56mm (12.57mm^3/s)
; infill extrusion width = 0.50mm (11.16mm^3/s)
; solid infill extrusion width = 0.56mm (7.54mm^3/s)
; top infill extrusion width = 0.56mm (3.77mm^3/s)

M107
M190 S60 ; set bed temperature and wait for it to be reached
M109 S100; FAZ AQUECIMENTO DO BICO
M104 S240; FAZ PRE AQUECIMENTO DO BICO
M402
G28; HOME GERAL
M400
G29 V4 T; AUTO NIVELAMENTO
M400
G1 X1 Y1 Z0.8 F1000; VAI PRA PONTO DE PURGA
M109 S240; FAZ AQUECIMENTO DO BICO
G92 E0; RESETA EXTRUSOR
G1 X1.0 E9.0 F1000.0 ; PURGA
G1 X100.0 E12.5 F1000.0 ; PURGA
M117 IMPRIMINDO...
M400
; Filament gcode

G21 ; set units to millimeters
G90 ; use absolute coordinates
M82 ; use absolute distances for extrusion
G92 E0
G92 E0
G1 E-10.00000 F3600.00000
G92 E0
G1 Z0.200 F12000.000
G1 Z0.320 F12000.000
G1 Z0.520 F12000.000
G1 X45.327 Y55.626 F12000.000
G1 Z0.320 F12000.000
G1 E10.00000 F3600.00000
G1 F2700
G1 X47.755 Y53.798 E10.12749
G1 X50.107 Y52.128 E10.24853
G1 X52.483 Y50.537 E10.36850
G1 X77.053 Y34.863 E11.59111
G1 X77.885 Y34.421 E11.63062
G1 X78.807 Y34.086 E11.67179
G1 X79.003 Y34.033 E11.68027
G1 X79.969 Y33.863 E11.72145
G1 X80.594 Y33.824 E11.74773
G1 X108.608 Y33.491 E12.92301
G1 X111.461 Y33.492 E13.04272
G1 X139.408 Y33.824 E14.21519
G1 X140.033 Y33.863 E14.24147
G1 X141.000 Y34.033 E14.28265
G1 X141.195 Y34.086 E14.29114
G1 X142.117 Y34.421 E14.33229
G1 X142.949 Y34.863 E14.37181
G1 X167.626 Y50.608 E15.59982
G1 X170.021 Y52.216 E15.72085
G1 X172.371 Y53.890 E15.84188
G1 X174.553 Y55.532 E15.95646
G1 X176.811 Y57.329 E16.07749
G1 X179.135 Y59.286 E16.20498
G1 X181.289 Y61.206 E16.32602
G1 X183.278 Y63.078 E16.44059
G1 X185.326 Y65.109 E16.56162
G1 X187.401 Y67.286 E16.68776
G1 X207.893 Y89.741 E17.96308
G1 X208.483 Y90.525 E18.00425
G1 X208.593 Y90.700 E18.01292
G1 X209.039 Y91.576 E18.05413
G1 X209.116 Y91.767 E18.06279
G1 X209.403 Y92.706 E18.10396
G1 X209.446 Y92.908 E18.11262
G1 X209.565 Y93.882 E18.15381
G1 X209.575 Y94.371 E18.17433
G1 X209.416 Y104.748 E18.60972
G1 X207.900 Y179.999 E21.76722
G1 X207.863 Y180.614 E21.79307
G1 X207.735 Y181.449 E21.82851
G1 X207.664 Y181.754 E21.84166
G1 X207.396 Y182.601 E21.87890
G1 X207.278 Y182.892 E21.89209
G1 X206.880 Y183.686 E21.92934
G1 X206.718 Y183.954 E21.94249
G1 X206.199 Y184.676 E21.97978
G1 X205.997 Y184.915 E21.99292
G1 X205.372 Y185.547 E22.03022
G1 X205.135 Y185.751 E22.04335
G1 X204.418 Y186.276 E22.08063
G1 X204.151 Y186.441 E22.09376
G1 X203.361 Y186.846 E22.13103
G1 X203.071 Y186.967 E22.14420
G1 X202.228 Y187.243 E22.18141
G1 X201.922 Y187.317 E22.19460
G1 X201.060 Y187.456 E22.23126
G1 X200.288 Y187.499 E22.26368
G1 X19.714 Y187.499 E29.83899
G1 X18.952 Y187.456 E29.87102
G1 X18.090 Y187.319 E29.90765
G1 X17.787 Y187.246 E29.92070
G1 X16.947 Y186.973 E29.95777
G1 X16.659 Y186.854 E29.97084
G1 X15.872 Y186.453 E30.00787
G1 X15.607 Y186.290 E30.02092
G1 X14.892 Y185.771 E30.05801
G1 X14.655 Y185.569 E30.07108
G1 X14.031 Y184.944 E30.10812
G1 X13.829 Y184.708 E30.12117
G1 X13.253 Y183.900 E30.16278
G1 X13.147 Y183.727 E30.17128
G1 X12.746 Y182.940 E30.20835
G1 X12.627 Y182.653 E30.22140
G1 X12.354 Y181.812 E30.25846
G1 X12.281 Y181.510 E30.27152
G1 X12.143 Y180.637 E30.30858
G1 X12.102 Y179.999 E30.33542
G1 X10.587 Y104.749 E33.49290
G1 X10.427 Y94.371 E33.92830
G1 X10.437 Y93.882 E33.94883
G1 X10.557 Y92.908 E33.99001
G1 X10.599 Y92.706 E33.99868
G1 X10.886 Y91.767 E34.03985
G1 X10.964 Y91.575 E34.04852
G1 X11.409 Y90.701 E34.08970
G1 X11.519 Y90.526 E34.09836
G1 X12.109 Y89.742 E34.13953
G1 X32.684 Y67.196 E35.41997
G1 X34.676 Y65.109 E35.54101
G1 X36.724 Y63.077 E35.66204
G1 X38.713 Y61.206 E35.77662
G1 X40.983 Y59.185 E35.90411
G1 X43.072 Y57.426 E36.01868
G1 X45.280 Y55.664 E36.13720
G1 X45.524 Y55.873 F12000.000
G1 F2700
G1 X47.938 Y54.055 E36.26397
G1 X50.283 Y52.390 E36.38464
G1 X52.653 Y50.803 E36.50431
G1 X77.223 Y35.129 E37.72692
G1 X78.018 Y34.707 E37.76469
G1 X78.889 Y34.390 E37.80356
G1 X79.084 Y34.338 E37.81204
G1 X79.997 Y34.177 E37.85091
G1 X80.598 Y34.140 E37.87619
G1 X108.608 Y33.807 E39.05132
G1 X111.458 Y33.807 E39.17087
G1 X139.404 Y34.140 E40.34334
G1 X140.006 Y34.177 E40.36863
G1 X140.918 Y34.338 E40.40749
G1 X141.114 Y34.390 E40.41599
G1 X141.984 Y34.707 E40.45483
G1 X142.780 Y35.129 E40.49262
G1 X167.451 Y50.870 E41.72032
G1 X169.839 Y52.473 E41.84099
G1 X172.182 Y54.142 E41.96166
G1 X174.364 Y55.784 E42.07624
G1 X176.615 Y57.575 E42.19691
G1 X178.816 Y59.427 E42.31758
G1 X181.073 Y61.436 E42.44435
G1 X183.062 Y63.307 E42.55892
G1 X185.104 Y65.333 E42.67959
G1 X187.169 Y67.498 E42.80508
G1 X207.658 Y89.952 E44.08032
G1 X208.216 Y90.692 E44.11918
G1 X208.325 Y90.868 E44.12785
G1 X208.746 Y91.694 E44.16675
G1 X208.824 Y91.885 E44.17542
G1 X209.094 Y92.771 E44.21427
G1 X209.137 Y92.973 E44.22294
G1 X209.250 Y93.893 E44.26182
G1 X209.260 Y94.366 E44.28167
G1 X209.101 Y104.744 E44.71707
G1 X207.585 Y179.993 E47.87450
G1 X207.549 Y180.590 E47.89960
G1 X207.427 Y181.378 E47.93305
G1 X207.357 Y181.683 E47.94620
G1 X207.104 Y182.482 E47.98136
G1 X206.986 Y182.773 E47.99454
G1 X206.610 Y183.523 E48.02971
G1 X206.448 Y183.791 E48.04285
G1 X205.959 Y184.473 E48.07806
G1 X205.757 Y184.712 E48.09119
G1 X205.166 Y185.308 E48.12640
G1 X204.929 Y185.512 E48.13953
G1 X204.252 Y186.008 E48.17473
G1 X203.986 Y186.172 E48.18786
G1 X203.239 Y186.555 E48.22304
G1 X202.950 Y186.676 E48.23621
G1 X202.154 Y186.937 E48.27134
G1 X201.848 Y187.010 E48.28452
G1 X201.034 Y187.141 E48.31913
G1 X200.288 Y187.184 E48.35047
G1 X19.714 Y187.184 E55.92578
G1 X18.977 Y187.142 E55.95674
G1 X18.163 Y187.012 E55.99133
G1 X17.861 Y186.939 E56.00438
G1 X17.067 Y186.682 E56.03937
G1 X16.780 Y186.562 E56.05244
G1 X16.037 Y186.184 E56.08740
G1 X15.772 Y186.022 E56.10045
G1 X15.097 Y185.531 E56.13545
G1 X14.860 Y185.329 E56.14852
G1 X14.271 Y184.739 E56.18350
G1 X14.068 Y184.503 E56.19655
G1 X13.521 Y183.735 E56.23608
G1 X13.416 Y183.563 E56.24458
G1 X13.037 Y182.819 E56.27957
G1 X12.918 Y182.532 E56.29262
G1 X12.660 Y181.739 E56.32760
G1 X12.588 Y181.436 E56.34067
G1 X12.457 Y180.613 E56.37565
G1 X12.417 Y179.992 E56.40171
G1 X10.902 Y104.744 E59.55914
G1 X10.742 Y94.366 E59.99453
G1 X10.752 Y93.893 E60.01440
G1 X10.865 Y92.973 E60.05328
G1 X10.908 Y92.771 E60.06194
G1 X11.179 Y91.885 E60.10081
G1 X11.256 Y91.694 E60.10947
G1 X11.677 Y90.868 E60.14835
G1 X11.786 Y90.693 E60.15702
G1 X12.344 Y89.953 E60.19588
G1 X32.912 Y67.414 E61.47595
G1 X34.898 Y65.333 E61.59662
G1 X36.940 Y63.307 E61.71729
G1 X38.929 Y61.436 E61.83186
G1 X41.186 Y59.427 E61.95863
G1 X43.275 Y57.667 E62.07321
G1 X45.477 Y55.910 E62.19136
G1 E52.19136 F3600.00000
G92 E0
G1 Z0.520 F12000.000
G1 X37.089 Y87.297 F12000.000
G1 Z0.320 F12000.000
G1 E10.00000 F3600.00000
G1 F2700
G1 X35.966 Y89.493 E10.10938
G1 X34.848 Y91.847 E10.22494
G1 X33.802 Y94.230 E10.34037
G1 X32.826 Y96.646 E10.45593
G1 X31.921 Y99.093 E10.57160
G1 X31.091 Y101.560 E10.68704
G1 X30.334 Y104.053 E10.80259
G1 X29.650 Y106.570 E10.91826
G1 X29.043 Y109.101 E11.03370
G1 X28.510 Y111.652 E11.14926
G1 X28.053 Y114.220 E11.26493
G1 X27.673 Y116.795 E11.38037
G1 X27.370 Y119.383 E11.49592
G1 X27.143 Y121.982 E11.61159
G1 X26.993 Y124.582 E11.72709
G1 X26.925 Y126.921 E11.83088
G1 X26.827 Y179.942 E14.18218
G1 X26.779 Y180.528 E14.20825
G1 X26.745 Y180.719 E14.21686
G1 X26.538 Y181.422 E14.24938
G1 X26.212 Y182.079 E14.28188
G1 X25.902 Y182.520 E14.30581
G1 X25.396 Y183.050 E14.33831
G1 X25.247 Y183.175 E14.34693
G1 X24.636 Y183.581 E14.37943
G1 X24.147 Y183.809 E14.40336
G1 X23.445 Y184.014 E14.43583
G1 X23.255 Y184.048 E14.44436
G1 X22.666 Y184.096 E14.47056
G1 X19.670 Y184.096 E14.60342
G1 X18.968 Y184.029 E14.63470
G1 X18.330 Y183.862 E14.66395
G1 X17.725 Y183.596 E14.69325
G1 X17.169 Y183.240 E14.72255
G1 X16.799 Y182.924 E14.74411
G1 X16.360 Y182.431 E14.77340
G1 X16.003 Y181.874 E14.80271
G1 X15.924 Y181.718 E14.81047
G1 X15.684 Y181.103 E14.83976
G1 X15.543 Y180.457 E14.86907
G1 X15.505 Y179.929 E14.89256
G1 X15.505 Y173.087 E15.19599
G1 X15.525 Y172.804 E15.20856
G1 X15.620 Y172.386 E15.22758
G1 X15.733 Y172.103 E15.24110
G1 X15.883 Y171.821 E15.25524
G1 X16.142 Y171.481 E15.27422
G1 X16.308 Y171.314 E15.28465
G1 X16.548 Y171.126 E15.29819
G1 X16.820 Y170.956 E15.31239
G1 X17.214 Y170.791 E15.33134
G1 X17.434 Y170.732 E15.34141
G1 X17.818 Y170.680 E15.35864
G1 X19.598 Y170.679 E15.43754
G1 X19.943 Y170.722 E15.45298
G1 X20.281 Y170.815 E15.46850
G1 X20.425 Y170.710 E15.47640
G1 X20.505 Y126.849 E17.42151
G1 X20.574 Y124.423 E17.52911
G1 X20.723 Y121.747 E17.64799
G1 X20.945 Y119.107 E17.76550
G1 X21.245 Y116.442 E17.88441
G1 X21.626 Y113.756 E18.00473
G1 X22.072 Y111.144 E18.12224
G1 X22.599 Y108.514 E18.24115
G1 X23.207 Y105.870 E18.36147
G1 X23.883 Y103.276 E18.48039
G1 X24.623 Y100.731 E18.59790
G1 X25.455 Y98.149 E18.71822
G1 X26.350 Y95.621 E18.83713
G1 X27.304 Y93.149 E18.95464
G1 X28.353 Y90.647 E19.07496
G1 X29.447 Y88.233 E19.19247
G1 X29.997 Y87.105 E19.24814
G1 X29.712 Y86.942 E19.26268
G1 X29.496 Y87.268 E19.28003
G1 X28.108 Y89.495 E19.39641
G1 X27.660 Y90.260 E19.43572
G1 X26.780 Y91.762 E19.51289
G1 X25.517 Y94.062 E19.62927
G1 X24.317 Y96.393 E19.74554
G1 X23.921 Y97.218 E19.78612
G1 X23.180 Y98.761 E19.86202
G1 X22.111 Y101.155 E19.97829
G1 X21.106 Y103.579 E20.09467
G1 X20.142 Y106.098 E20.21426
G1 X20.034 Y106.335 E20.22581
G1 X19.937 Y106.503 E20.23444
G1 X19.677 Y106.842 E20.25339
G1 X19.362 Y107.133 E20.27241
G1 X19.169 Y107.267 E20.28280
G1 X18.789 Y107.462 E20.30178
G1 X18.378 Y107.590 E20.32083
G1 X17.955 Y107.643 E20.33978
G1 X17.760 Y107.643 E20.34839
G1 X17.358 Y107.593 E20.36636
G1 X17.062 Y107.512 E20.37997
G1 X15.567 Y106.967 E20.45057
G1 X15.310 Y106.852 E20.46306
G1 X15.003 Y106.662 E20.47906
G1 X14.864 Y106.553 E20.48685
G1 X14.589 Y106.282 E20.50397
G1 X14.458 Y106.117 E20.51336
G1 X14.256 Y105.787 E20.53053
G1 X14.182 Y105.627 E20.53831
G1 X14.060 Y105.260 E20.55546
G1 X13.997 Y104.879 E20.57260
G1 X13.995 Y104.492 E20.58976
G1 X14.047 Y104.135 E20.60576
G1 X14.132 Y103.843 E20.61923
G1 X15.117 Y101.268 E20.74152
G1 X16.144 Y98.780 E20.86087
G1 X16.620 Y97.707 E20.91294
G1 X16.544 Y97.558 E20.92034
G1 X16.150 Y97.457 E20.93839
G1 X15.778 Y97.307 E20.95618
G1 X15.605 Y97.219 E20.96481
G1 X15.110 Y96.889 E20.99119
G1 X14.679 Y96.479 E21.01758
G1 X14.432 Y96.163 E21.03537
G1 X14.196 Y95.755 E21.05626
G1 X14.062 Y95.466 E21.07037
G1 X13.938 Y95.085 E21.08816
G1 X13.838 Y94.498 E21.11454
G1 X13.842 Y93.903 E21.14093
G1 X13.866 Y93.710 E21.14955
G1 X14.006 Y93.132 E21.17594
G1 X14.156 Y92.760 E21.19372
G1 X14.244 Y92.587 E21.20235
G1 X14.574 Y92.091 E21.22874
G1 X14.984 Y91.661 E21.25512
G1 X15.464 Y91.308 E21.28151
G1 X15.818 Y91.120 E21.29930
G1 X16.378 Y90.920 E21.32568
G1 X16.568 Y90.876 E21.33431
G1 X17.013 Y90.817 E21.35425
G1 X20.010 Y90.660 E21.48734
G1 X20.088 Y90.611 E21.49141
G1 X20.477 Y89.885 E21.52795
G1 X21.852 Y87.457 E21.65169
G1 X23.278 Y85.092 E21.77415
G1 X24.784 Y82.741 E21.89797
G1 X26.371 Y80.407 E22.02314
G1 X28.005 Y78.143 E22.14696
G1 X29.699 Y75.923 E22.27078
G1 X31.453 Y73.752 E22.39459
G1 X33.246 Y71.651 E22.51706
G1 X35.116 Y69.578 E22.64088
G1 X37.042 Y67.556 E22.76470
G1 X39.023 Y65.588 E22.88852
G1 X41.056 Y63.675 E23.01233
G1 X43.164 Y61.798 E23.13750
G1 X45.300 Y60.000 E23.26132
G1 X47.460 Y58.279 E23.38379
G1 X49.690 Y56.599 E23.50761
G1 X51.965 Y54.981 E23.63142
G1 X54.310 Y53.409 E23.75659
G1 X56.670 Y51.918 E23.88041
G1 X59.071 Y50.493 E24.00423
G1 X61.483 Y49.148 E24.12670
G1 X63.958 Y47.855 E24.25051
G1 X66.467 Y46.630 E24.37433
G1 X69.008 Y45.475 E24.49815
G1 X71.581 Y44.389 E24.62197
G1 X74.182 Y43.374 E24.74579
G1 X77.208 Y42.297 E24.88825
G1 X77.274 Y42.206 E24.89326
G1 X77.274 Y40.566 E24.96598
G1 X77.309 Y40.122 E24.98572
G1 X77.445 Y39.547 E25.01191
G1 X77.512 Y39.365 E25.02053
G1 X77.777 Y38.837 E25.04673
G1 X78.129 Y38.363 E25.07292
G1 X78.410 Y38.082 E25.09051
G1 X78.782 Y37.801 E25.11122
G1 X79.052 Y37.633 E25.12532
G1 X79.412 Y37.465 E25.14291
G1 X79.858 Y37.328 E25.16362
G1 X80.169 Y37.262 E25.17772
G1 X80.564 Y37.227 E25.19531
G1 X81.031 Y37.251 E25.21602
G1 X81.345 Y37.296 E25.23011
G1 X81.729 Y37.399 E25.24771
G1 X82.271 Y37.633 E25.27390
G1 X82.439 Y37.730 E25.28252
G1 X82.913 Y38.082 E25.30871
G1 X83.194 Y38.363 E25.32631
G1 X83.546 Y38.837 E25.35249
G1 X83.759 Y39.253 E25.37321
G1 X83.877 Y39.547 E25.38730
G1 X84.017 Y40.139 E25.41425
G1 X84.145 Y40.222 E25.42103
G1 X86.029 Y39.739 E25.50726
G1 X88.777 Y39.115 E25.63221
G1 X91.571 Y38.562 E25.75853
G1 X94.380 Y38.087 E25.88486
G1 X97.200 Y37.691 E26.01118
G1 X100.031 Y37.373 E26.13751
G1 X102.870 Y37.134 E26.26383
G1 X105.745 Y36.974 E26.39153
G1 X108.592 Y36.895 E26.51786
G1 X111.441 Y36.895 E26.64418
G1 X114.288 Y36.975 E26.77051
G1 X117.102 Y37.132 E26.89546
G1 X118.124 Y37.218 E26.94097
G1 X119.971 Y37.373 E27.02316
G1 X122.771 Y37.687 E27.14811
G1 X125.592 Y38.082 E27.27443
G1 X128.431 Y38.562 E27.40213
G1 X131.226 Y39.115 E27.52846
G1 X133.973 Y39.739 E27.65341
G1 X135.857 Y40.222 E27.73964
G1 X135.985 Y40.139 E27.74642
G1 X136.022 Y39.931 E27.75579
G1 X136.191 Y39.365 E27.78199
G1 X136.456 Y38.837 E27.80817
G1 X136.684 Y38.512 E27.82578
G1 X137.002 Y38.170 E27.84648
G1 X137.238 Y37.957 E27.86058
G1 X137.732 Y37.633 E27.88677
G1 X138.091 Y37.465 E27.90437
G1 X138.657 Y37.296 E27.93055
G1 X138.848 Y37.262 E27.93918
G1 X139.438 Y37.227 E27.96537
G1 X140.025 Y37.296 E27.99157
G1 X140.591 Y37.465 E28.01776
G1 X140.950 Y37.633 E28.03535
G1 X141.443 Y37.957 E28.06154
G1 X141.873 Y38.363 E28.08774
G1 X142.225 Y38.837 E28.11393
G1 X142.490 Y39.365 E28.14012
G1 X142.627 Y39.811 E28.16083
G1 X142.693 Y40.122 E28.17493
G1 X142.728 Y40.566 E28.19467
G1 X142.728 Y42.206 E28.26740
G1 X142.794 Y42.298 E28.27241
G1 X145.821 Y43.374 E28.41486
G1 X148.422 Y44.389 E28.53868
G1 X150.994 Y45.475 E28.66250
G1 X153.508 Y46.618 E28.78497
G1 X156.017 Y47.842 E28.90879
G1 X158.492 Y49.134 E29.03260
G1 X160.931 Y50.493 E29.15642
G1 X163.332 Y51.919 E29.28024
G1 X165.693 Y53.409 E29.40406
G1 X168.037 Y54.981 E29.52922
G1 X170.312 Y56.600 E29.65304
G1 X172.518 Y58.261 E29.77551
G1 X174.702 Y60.000 E29.89933
G1 X176.838 Y61.799 E30.02315
G1 X178.946 Y63.675 E30.14831
G1 X180.979 Y65.589 E30.27213
G1 X182.960 Y67.557 E30.39595
G1 X184.865 Y69.556 E30.51842
G1 X186.736 Y71.629 E30.64223
G1 X188.549 Y73.752 E30.76605
G1 X190.303 Y75.924 E30.88987
G1 X191.998 Y78.143 E31.01369
G1 X193.631 Y80.407 E31.13750
G1 X195.218 Y82.741 E31.26267
G1 X196.708 Y85.066 E31.38514
G1 X198.150 Y87.457 E31.50896
G1 X199.525 Y89.885 E31.63269
G1 X199.914 Y90.611 E31.66923
G1 X199.992 Y90.660 E31.67330
G1 X203.086 Y90.827 E31.81070
G1 X203.624 Y90.920 E31.83493
G1 X204.006 Y91.044 E31.85273
G1 X204.539 Y91.308 E31.87911
G1 X204.702 Y91.414 E31.88774
G1 X205.160 Y91.793 E31.91412
G1 X205.545 Y92.247 E31.94050
G1 X205.846 Y92.760 E31.96690
G1 X206.053 Y93.318 E31.99328
G1 X206.137 Y93.710 E32.01106
G1 X206.174 Y94.304 E32.03747
G1 X206.109 Y94.894 E32.06380
G1 X206.065 Y95.085 E32.07245
G1 X205.865 Y95.645 E32.09886
G1 X205.677 Y95.999 E32.11662
G1 X205.400 Y96.381 E32.13754
G1 X205.191 Y96.621 E32.15166
G1 X204.893 Y96.889 E32.16942
G1 X204.738 Y97.006 E32.17805
G1 X204.224 Y97.307 E32.20444
G1 X203.852 Y97.457 E32.22224
G1 X203.458 Y97.558 E32.24028
G1 X203.382 Y97.707 E32.24769
G1 X203.859 Y98.780 E32.29976
G1 X204.886 Y101.268 E32.41911
G1 X205.903 Y103.942 E32.54600
G1 X205.982 Y104.274 E32.56115
G1 X206.015 Y104.667 E32.57861
G1 X205.985 Y105.054 E32.59583
G1 X205.894 Y105.432 E32.61309
G1 X205.747 Y105.787 E32.63012
G1 X205.644 Y105.970 E32.63943
G1 X205.414 Y106.282 E32.65661
G1 X205.295 Y106.410 E32.66437
G1 X205.002 Y106.660 E32.68145
G1 X204.598 Y106.897 E32.70221
G1 X202.939 Y107.512 E32.78068
G1 X202.667 Y107.589 E32.79318
G1 X202.366 Y107.632 E32.80667
G1 X202.048 Y107.643 E32.82079
G1 X201.814 Y107.623 E32.83120
G1 X201.397 Y107.529 E32.85016
G1 X201.001 Y107.364 E32.86921
