;FLAVOR:Marlin
;TIME:11031
;Filament used: 5.38914m
;Layer height: 0.15
;MINX:70.57
;MINY:20.57
;MINZ:0.3
;MAXX:229.43
;MAXY:179.43
;MAXZ:0.3
;Generated with Cura_SteamEngine 4.8.0
M140 S60
M105
M190 S60
M104 S230
M105
M109 S230
M82 ;absolute extrusion mode
G28 ; HOME GERAL
M400
G29 V4 T ; AUTO NIVELAMENTO
M400
G92 E0; RESETA EXTRUSOR
G1 X0 Y0 Z0.0 F3000; VAI PRA PONTO DE PURGA
G1 E20 F150; PURGA FILAMENTO
G92 E0;  RESETA EXTRUSOR
G1 E-3; RETIRA PRESSAO DO BICO
G1 Z10 F3000;
G1 X0 Y0 F10000; MOVIMENTO PRA SOLTAR PURGA
G1 X0 Y30 F10000; MOVIMENTO PRA SOLTAR PURGA
G92 E0
G92 E0
;LAYER_COUNT:1
;LAYER:0
M107
G0 F12000 X70.754 Y23.775 Z0.3
;TYPE:SKIRT
G1 F1500 X70.958 Y23.216 E0.04245
G1 X71.235 Y22.689 E0.08493
G1 X71.58 Y22.204 E0.12739
G1 X71.987 Y21.77 E0.16984
G1 X72.448 Y21.394 E0.21228
G1 X72.955 Y21.084 E0.25468
G1 X73.5 Y20.844 E0.29716
G1 X74.072 Y20.679 E0.33963
G1 X74.885 Y20.581 E0.39806
G1 X75.33 Y20.57 E0.42981
G1 X224.356 Y20.57 E11.06177
G1 X225.054 Y20.58 E11.11158
G1 X225.647 Y20.629 E11.15403
G1 X226.229 Y20.756 E11.19653
G1 X226.787 Y20.961 E11.23894
G1 X227.314 Y21.238 E11.28141
G1 X227.798 Y21.583 E11.32382
G1 X228.232 Y21.99 E11.36626
G1 X228.608 Y22.452 E11.40876
G1 X228.918 Y22.96 E11.45122
G1 X229.157 Y23.504 E11.49361
G1 X229.321 Y24.076 E11.53606
G1 X229.419 Y24.885 E11.5942
G1 X229.43 Y25.33 E11.62596
G1 X229.43 Y174.319 E22.25528
G1 X229.421 Y175.046 E22.30715
G1 X229.373 Y175.639 E22.34959
G1 X229.247 Y176.22 E22.39201
G1 X229.044 Y176.78 E22.4345
G1 X228.768 Y177.307 E22.47694
G1 X228.423 Y177.792 E22.51941
G1 X228.017 Y178.226 E22.56181
G1 X227.556 Y178.603 E22.60429
G1 X227.049 Y178.914 E22.64673
G1 X226.505 Y179.154 E22.68915
G1 X225.933 Y179.32 E22.73164
G1 X225.115 Y179.419 E22.79042
G1 X224.67 Y179.43 E22.82218
G1 X75.65 Y179.43 E33.45371
G1 X74.952 Y179.421 E33.50351
G1 X74.359 Y179.373 E33.54596
G1 X73.777 Y179.246 E33.58846
G1 X73.218 Y179.043 E33.63089
G1 X72.692 Y178.766 E33.6733
G1 X72.206 Y178.422 E33.71578
G1 X71.772 Y178.015 E33.75823
G1 X71.396 Y177.554 E33.80067
G1 X71.085 Y177.047 E33.8431
G1 X70.845 Y176.503 E33.88552
G1 X70.68 Y175.931 E33.92799
G1 X70.581 Y175.111 E33.98692
G1 X70.57 Y174.658 E34.01925
G1 X70.57 Y25.614 E44.65249
G1 X70.579 Y24.949 E44.69994
G1 X70.627 Y24.356 E44.74238
G1 X70.754 Y23.775 E44.78481
G0 F12000 X71.325 Y23.863
G1 F1500 X71.528 Y23.346 E44.82444
G1 X71.802 Y22.864 E44.86399
G1 X72.144 Y22.426 E44.90364
G1 X72.544 Y22.041 E44.94325
G1 X72.996 Y21.718 E44.98288
G1 X73.489 Y21.463 E45.02248
G1 X74.014 Y21.282 E45.0621
G1 X74.559 Y21.177 E45.1017
G1 X75.222 Y21.144 E45.14905
G1 X75.33 Y21.142 E45.15676
G1 X224.348 Y21.142 E55.78815
G1 X225.046 Y21.152 E55.83795
G1 X225.599 Y21.2 E55.87755
G1 X226.14 Y21.327 E55.9172
G1 X226.657 Y21.53 E55.95683
G1 X227.139 Y21.805 E55.99642
G1 X227.577 Y22.147 E56.03606
G1 X227.961 Y22.547 E56.07562
G1 X228.284 Y22.999 E56.11525
G1 X228.538 Y23.493 E56.15488
G1 X228.719 Y24.017 E56.19443
G1 X228.823 Y24.563 E56.23409
G1 X228.856 Y25.222 E56.28116
G1 X228.858 Y25.33 E56.28887
G1 X228.858 Y174.312 E66.91769
G1 X228.849 Y175.039 E66.96956
G1 X228.802 Y175.592 E67.00916
G1 X228.676 Y176.133 E67.04878
G1 X228.474 Y176.65 E67.08838
G1 X228.2 Y177.133 E67.128
G1 X227.859 Y177.571 E67.1676
G1 X227.459 Y177.956 E67.20721
G1 X227.008 Y178.28 E67.24683
G1 X226.515 Y178.535 E67.28643
G1 X225.991 Y178.717 E67.326
G1 X225.446 Y178.822 E67.3656
G1 X224.778 Y178.856 E67.41332
G1 X224.67 Y178.858 E67.42102
G1 X75.657 Y178.858 E78.05206
G1 X74.959 Y178.849 E78.10186
G1 X74.406 Y178.802 E78.14145
G1 X73.865 Y178.676 E78.18108
G1 X73.348 Y178.473 E78.22071
G1 X72.866 Y178.199 E78.26026
G1 X72.427 Y177.858 E78.29992
G1 X72.043 Y177.458 E78.33948
G1 X71.719 Y177.006 E78.37916
G1 X71.464 Y176.513 E78.41876
G1 X71.282 Y175.989 E78.45833
G1 X71.178 Y175.444 E78.49791
G1 X71.143 Y174.762 E78.54663
G1 X71.142 Y25.622 E89.18673
G1 X71.151 Y24.957 E89.23417
G1 X71.199 Y24.404 E89.27378
G1 X71.325 Y23.863 E89.31341
G0 F12000 X71.896 Y23.958
G1 F1500 X72.097 Y23.487 E89.34994
G1 X72.369 Y23.052 E89.38654
G1 X72.705 Y22.666 E89.42305
G1 X73.097 Y22.336 E89.45961
G1 X73.536 Y22.072 E89.49616
G1 X74.011 Y21.878 E89.53276
G1 X74.509 Y21.761 E89.56926
G1 X75.238 Y21.715 E89.62137
G1 X224.34 Y21.714 E100.25875
G1 X225.038 Y21.724 E100.30855
G1 X225.548 Y21.772 E100.3451
G1 X226.045 Y21.898 E100.38168
G1 X226.516 Y22.099 E100.41821
G1 X226.95 Y22.372 E100.45479
G1 X227.336 Y22.708 E100.4913
G1 X227.665 Y23.101 E100.52787
G1 X227.93 Y23.539 E100.56439
G1 X228.122 Y24.014 E100.60094
G1 X228.239 Y24.513 E100.63751
G1 X228.285 Y25.238 E100.68934
G1 X228.286 Y174.305 E111.32422
G1 X228.277 Y175.032 E111.37609
G1 X228.23 Y175.542 E111.41263
G1 X228.105 Y176.039 E111.44919
G1 X227.905 Y176.51 E111.4857
G1 X227.633 Y176.945 E111.5223
G1 X227.297 Y177.332 E111.55886
G1 X226.906 Y177.662 E111.59537
G1 X226.467 Y177.927 E111.63195
G1 X225.993 Y178.121 E111.66849
G1 X225.494 Y178.238 E111.70506
G1 X224.762 Y178.285 E111.75739
G1 X75.665 Y178.286 E122.39441
G1 X74.967 Y178.277 E122.44421
G1 X74.456 Y178.23 E122.48082
G1 X73.96 Y178.105 E122.51732
G1 X73.488 Y177.904 E122.55392
G1 X73.054 Y177.632 E122.59046
G1 X72.667 Y177.296 E122.62702
G1 X72.337 Y176.904 E122.66358
G1 X72.073 Y176.466 E122.70006
G1 X71.879 Y175.991 E122.73667
G1 X71.762 Y175.493 E122.77316
G1 X71.715 Y174.747 E122.82649
G1 X71.714 Y25.63 E133.46494
G1 X71.723 Y24.965 E133.51239
G1 X71.77 Y24.454 E133.549
G1 X71.896 Y23.958 E133.58551
;MESH:modo-calibracao.3mf
G0 F12000 X75.794 Y25.794
G0 X76.3 Y26.3
;TYPE:WALL-INNER
G1 F1500 X223.7 Y26.3 E143.14547
G1 X223.7 Y173.7 E152.70543
G1 X76.3 Y173.7 E162.26539
G1 X76.3 Y26.3 E171.82535
G0 F12000 X75.78 Y25.78
G1 F1500 X224.22 Y25.78 E181.45277
G1 X224.22 Y174.22 E191.08018
G1 X75.78 Y174.22 E200.70759
G1 X75.78 Y25.78 E210.335
G0 F12000 X75.26 Y25.26
;TYPE:WALL-OUTER
G1 F1500 X224.74 Y25.26 E220.02987
G1 X224.74 Y174.74 E229.72473
G1 X75.26 Y174.74 E239.41959
G1 X75.26 Y25.26 E249.11446
G0 F12000 X75.85 Y25.85
G0 X76.836 Y26.836
;TYPE:SKIN
G1 F1500 X223.164 Y26.836 E259.55394
G1 X223.164 Y173.164 E269.99341
G1 X76.836 Y173.164 E280.43289
G1 X76.836 Y26.836 E290.87237
G0 F12000 X222.657 Y27.891
;TYPE:SKIN
G1 F1500 X222.107 Y27.341 E290.91505
G1 X222.657 Y27.341 E290.94524
G0 F12000 X222.107 Y27.341
G1 F1500 X221.484 Y27.341 E290.97943
G1 X222.657 Y28.514 E291.07046
G1 X222.657 Y29.136 E291.1046
G1 X220.862 Y27.341 E291.24391
G1 X220.24 Y27.341 E291.27804
G1 X222.657 Y29.758 E291.46563
G1 X222.657 Y30.38 E291.49977
G1 X219.618 Y27.341 E291.73562
G1 X218.995 Y27.341 E291.76981
G1 X222.657 Y31.003 E292.05403
G1 X222.657 Y31.625 E292.08816
G1 X218.373 Y27.341 E292.42065
G1 X217.751 Y27.341 E292.45478
G1 X222.657 Y32.247 E292.83554
G1 X222.657 Y32.869 E292.86968
G1 X217.129 Y27.341 E293.29871
G1 X216.506 Y27.341 E293.3329
G1 X222.657 Y33.492 E293.81028
G1 X222.657 Y34.114 E293.84442
G1 X215.884 Y27.341 E294.37008
G1 X215.262 Y27.341 E294.40421
G1 X222.657 Y34.736 E294.97814
G1 X222.657 Y35.358 E295.01228
G1 X214.64 Y27.341 E295.63449
G1 X214.017 Y27.341 E295.66868
G1 X222.657 Y35.981 E296.33923
G1 X222.657 Y36.603 E296.37337
G1 X213.395 Y27.341 E297.0922
G1 X212.773 Y27.341 E297.12634
G1 X222.657 Y37.225 E297.89344
G1 X222.657 Y37.847 E297.92758
G1 X212.151 Y27.341 E298.74296
G1 X211.528 Y27.341 E298.77715
G1 X222.657 Y38.47 E299.64088
G1 X222.657 Y39.092 E299.67502
G1 X210.906 Y27.341 E300.58702
G1 X210.284 Y27.341 E300.62116
G1 X222.657 Y39.714 E301.58144
G1 X222.657 Y40.336 E301.61557
G1 X209.662 Y27.341 E302.62413
G1 X209.039 Y27.341 E302.65832
G1 X222.657 Y40.959 E303.71522
G1 X222.657 Y41.581 E303.74936
G1 X208.417 Y27.341 E304.85454
G1 X207.795 Y27.341 E304.88867
G1 X222.657 Y42.203 E306.04212
G1 X222.657 Y42.825 E306.07626
G1 X207.173 Y27.341 E307.27799
G1 X206.55 Y27.341 E307.31218
G1 X222.657 Y43.448 E308.56226
G1 X222.657 Y44.07 E308.59639
G1 X205.928 Y27.341 E309.89475
G1 X205.306 Y27.341 E309.92888
G1 X222.657 Y44.692 E311.27551
G1 X222.657 Y45.314 E311.30964
G1 X204.684 Y27.341 E312.70454
G1 X204.061 Y27.341 E312.73873
G1 X222.657 Y45.937 E314.18199
G1 X222.657 Y46.559 E314.21612
G1 X203.439 Y27.341 E315.70765
G1 X202.817 Y27.341 E315.74178
G1 X222.657 Y47.181 E317.28158
G1 X222.657 Y47.803 E317.31572
G1 X202.195 Y27.341 E318.90379
G1 X201.572 Y27.341 E318.93798
G1 X222.657 Y48.426 E320.57441
G1 X222.657 Y49.048 E320.60855
G1 X200.95 Y27.341 E322.29325
G1 X200.328 Y27.341 E322.32738
G1 X222.657 Y49.67 E324.06036
G1 X222.657 Y50.292 E324.09449
G1 X199.706 Y27.341 E325.87574
G1 X199.083 Y27.341 E325.90993
G1 X222.657 Y50.915 E327.73953
G1 X222.657 Y51.537 E327.77366
G1 X198.461 Y27.341 E329.65154
G1 X197.839 Y27.341 E329.68567
G1 X222.657 Y52.159 E331.61182
G1 X222.657 Y52.781 E331.64596
G1 X197.217 Y27.341 E333.62038
G1 X196.594 Y27.341 E333.65457
G1 X222.657 Y53.404 E335.67734
G1 X222.657 Y54.026 E335.71148
G1 X195.972 Y27.341 E337.78253
G1 X195.35 Y27.341 E337.81666
G1 X222.657 Y54.648 E339.93598
G1 X222.657 Y55.271 E339.97017
G1 X194.728 Y27.341 E342.13781
G1 X194.105 Y27.341 E342.172
G1 X222.657 Y55.893 E344.38794
G1 X222.657 Y56.515 E344.42208
G1 X193.483 Y27.341 E346.6863
G1 X192.861 Y27.341 E346.72044
G1 X222.657 Y57.137 E349.03293
G1 X222.657 Y57.76 E349.06712
G1 X192.238 Y27.341 E351.42797
G1 X191.616 Y27.341 E351.4621
G1 X222.657 Y58.382 E353.87122
G1 X222.657 Y59.004 E353.90536
G1 X190.994 Y27.341 E356.36275
G1 X190.372 Y27.341 E356.39689
G1 X222.657 Y59.626 E358.90256
G1 X222.657 Y60.249 E358.93675
G1 X189.749 Y27.341 E361.49077
G1 X189.127 Y27.341 E361.5249
G1 X222.657 Y60.871 E364.1272
G1 X222.657 Y61.493 E364.16133
G1 X188.505 Y27.341 E366.8119
G1 X187.883 Y27.341 E366.84604
G1 X222.657 Y62.115 E369.54488
G1 X222.657 Y62.738 E369.57907
G1 X187.26 Y27.341 E372.32627
G1 X186.638 Y27.341 E372.3604
G1 X222.657 Y63.36 E375.15587
G1 X222.657 Y63.982 E375.19
G1 X186.016 Y27.341 E378.03375
G1 X185.394 Y27.341 E378.06788
G1 X222.657 Y64.604 E380.9599
G1 X222.657 Y65.227 E380.99409
G1 X184.771 Y27.341 E383.93446
G1 X184.149 Y27.341 E383.96859
G1 X222.657 Y65.849 E386.95723
G1 X222.657 Y66.471 E386.99137
G1 X183.527 Y27.341 E390.02828
G1 X182.905 Y27.341 E390.06242
G1 X222.657 Y67.093 E393.14761
G1 X222.657 Y67.716 E393.1818
G1 X182.282 Y27.341 E396.31534
G1 X181.66 Y27.341 E396.34947
G1 X222.657 Y68.338 E399.53129
G1 X222.657 Y68.96 E399.56543
G1 X181.038 Y27.341 E402.79551
G1 X180.416 Y27.341 E402.82965
G1 X222.657 Y69.582 E406.10801
G1 X222.657 Y70.205 E406.1422
G1 X179.793 Y27.341 E409.46892
G1 X179.171 Y27.341 E409.50305
G1 X222.657 Y70.827 E412.87804
G1 X222.657 Y71.449 E412.91218
G1 X178.549 Y27.341 E416.33544
G1 X177.927 Y27.341 E416.36958
G1 X222.657 Y72.071 E419.84111
G1 X222.657 Y72.694 E419.8753
G1 X177.304 Y27.341 E423.39519
G1 X176.682 Y27.341 E423.42933
G1 X222.657 Y73.316 E426.99749
G1 X222.657 Y73.938 E427.03162
G1 X176.06 Y27.341 E430.64806
G1 X175.438 Y27.341 E430.6822
G1 X222.657 Y74.56 E434.34691
G1 X222.657 Y75.183 E434.3811
G1 X174.815 Y27.341 E438.09416
G1 X174.193 Y27.341 E438.1283
G1 X222.657 Y75.805 E441.88963
G1 X222.657 Y76.427 E441.92377
G1 X173.571 Y27.341 E445.73338
G1 X172.949 Y27.341 E445.76751
G1 X222.657 Y77.049 E449.6254
G1 X222.657 Y77.672 E449.65959
G1 X172.326 Y27.341 E453.56582
G1 X171.704 Y27.341 E453.59996
G1 X222.657 Y78.294 E457.55447
G1 X222.657 Y78.916 E457.5886
G1 X171.082 Y27.341 E461.59139
G1 X170.46 Y27.341 E461.62552
G1 X222.657 Y79.538 E465.67658
G1 X222.657 Y80.161 E465.71077
G1 X169.837 Y27.341 E469.81018
G1 X169.215 Y27.341 E469.84432
G1 X222.657 Y80.783 E473.992
G1 X222.657 Y81.405 E474.02613
G1 X168.593 Y27.341 E478.22209
G1 X167.971 Y27.341 E478.25623
G1 X222.657 Y82.027 E482.50046
G1 X222.657 Y82.65 E482.53465
G1 X167.348 Y27.341 E486.82723
G1 X166.726 Y27.341 E486.86137
G1 X222.657 Y83.272 E491.20222
G1 X222.657 Y83.894 E491.23636
G1 X166.104 Y27.341 E495.62549
G1 X165.482 Y27.341 E495.65963
G1 X222.657 Y84.516 E500.09703
G1 X222.657 Y85.139 E500.13122
G1 X164.859 Y27.341 E504.61698
G1 X164.237 Y27.341 E504.65111
G1 X222.657 Y85.761 E509.18514
G1 X222.657 Y86.383 E509.21928
G1 X163.615 Y27.341 E513.80158
G1 X162.993 Y27.341 E513.83572
G1 X222.657 Y87.005 E518.4663
G1 X222.657 Y87.628 E518.50049
G1 X162.37 Y27.341 E523.17942
G1 X161.748 Y27.341 E523.21355
G1 X222.657 Y88.25 E527.94076
G1 X222.657 Y88.872 E527.97489
G1 X161.126 Y27.341 E532.75037
G1 X160.504 Y27.341 E532.78451
G1 X222.657 Y89.494 E537.60826
G1 X222.657 Y90.117 E537.64245
G1 X159.881 Y27.341 E542.51455
G1 X159.259 Y27.341 E542.54869
G1 X222.657 Y90.739 E547.46907
G1 X222.657 Y91.361 E547.5032
G1 X158.637 Y27.341 E552.47185
G1 X158.015 Y27.341 E552.50599
G1 X222.657 Y91.983 E557.52292
G1 X222.657 Y92.606 E557.55711
G1 X157.392 Y27.341 E562.62238
G1 X156.77 Y27.341 E562.65652
G1 X222.657 Y93.228 E567.77007
G1 X222.657 Y93.85 E567.80421
G1 X156.148 Y27.341 E572.96603
G1 X155.526 Y27.341 E573.00017
G1 X222.657 Y94.473 E578.21031
G1 X222.657 Y95.095 E578.24444
G1 X154.903 Y27.341 E583.50289
G1 X154.281 Y27.341 E583.53703
G1 X222.657 Y95.717 E588.84375
G1 X222.657 Y96.339 E588.87789
G1 X153.659 Y27.341 E594.23289
G1 X153.036 Y27.341 E594.26708
G1 X222.657 Y96.962 E599.67043
G1 X222.657 Y97.584 E599.70456
G1 X152.414 Y27.341 E605.15619
G1 X151.792 Y27.341 E605.19032
G1 X222.657 Y98.206 E610.69022
G1 X222.657 Y98.828 E610.72436
G1 X151.17 Y27.341 E616.27253
G1 X150.547 Y27.341 E616.30672
G1 X222.657 Y99.451 E621.90325
G1 X222.657 Y100.073 E621.93738
G1 X149.925 Y27.341 E627.58218
G1 X149.303 Y27.341 E627.61631
G1 X222.657 Y100.695 E633.30939
G1 X222.657 Y101.317 E633.34352
G1 X148.681 Y27.341 E639.08487
G1 X148.058 Y27.341 E639.11906
G1 X222.657 Y101.94 E644.90876
G1 X222.657 Y102.562 E644.94289
G1 X147.436 Y27.341 E650.78087
G1 X146.814 Y27.341 E650.815
G1 X222.657 Y103.184 E656.70125
G1 X222.657 Y103.806 E656.73538
G1 X146.192 Y27.341 E662.6699
G1 X145.569 Y27.341 E662.70409
G1 X222.657 Y104.429 E668.68696
G1 X222.657 Y105.051 E668.7211
G1 X144.947 Y27.341 E674.75225
G1 X144.325 Y27.341 E674.78638
G1 X222.657 Y105.673 E680.8658
G1 X222.657 Y106.295 E680.89994
G1 X143.703 Y27.341 E687.02763
G1 X143.08 Y27.341 E687.06182
G1 X222.657 Y106.918 E693.23787
G1 X222.657 Y107.54 E693.272
G1 X142.458 Y27.341 E699.49632
G1 X141.836 Y27.341 E699.53045
G1 X222.657 Y108.162 E705.80305
G1 X222.657 Y108.784 E705.83718
G1 X141.214 Y27.341 E712.15805
G1 X140.591 Y27.341 E712.19224
G1 X222.657 Y109.407 E718.56146
G1 X222.657 Y110.029 E718.5956
G1 X139.969 Y27.341 E725.01309
G1 X139.347 Y27.341 E725.04722
G1 X222.657 Y110.651 E731.51299
G1 X222.657 Y111.273 E731.54713
G1 X138.725 Y27.341 E738.06117
G1 X138.102 Y27.341 E738.09536
G1 X222.657 Y111.896 E744.65775
G1 X222.657 Y112.518 E744.69189
G1 X137.48 Y27.341 E751.30255
G1 X136.858 Y27.341 E751.33669
G1 X222.657 Y113.14 E757.99563
G1 X222.657 Y113.762 E758.02976
G1 X136.236 Y27.341 E764.73698
G1 X135.613 Y27.341 E764.77117
G1 X222.657 Y114.385 E771.52674
G1 X222.657 Y115.007 E771.56087
G1 X134.991 Y27.341 E778.36471
G1 X134.369 Y27.341 E778.39885
G1 X222.657 Y115.629 E785.25096
G1 X222.657 Y116.251 E785.2851
G1 X133.747 Y27.341 E792.18548
G1 X133.124 Y27.341 E792.21967
G1 X222.657 Y116.874 E799.16841
G1 X222.657 Y117.496 E799.20255
G1 X132.502 Y27.341 E806.19956
G1 X131.88 Y27.341 E806.2337
G1 X222.657 Y118.118 E813.27899
G1 X222.657 Y118.74 E813.31312
G1 X131.258 Y27.341 E820.40668
G1 X130.635 Y27.341 E820.44087
G1 X222.657 Y119.363 E827.58279
G1 X222.657 Y119.985 E827.61692
G1 X130.013 Y27.341 E834.80711
G1 X129.391 Y27.341 E834.84125
G1 X222.657 Y120.607 E842.07971
G1 X222.657 Y121.229 E842.11384
G1 X128.769 Y27.341 E849.40058
G1 X128.146 Y27.341 E849.43477
G1 X222.657 Y121.852 E856.76986
G1 X222.657 Y122.474 E856.80399
G1 X127.524 Y27.341 E864.18735
G1 X126.902 Y27.341 E864.22149
G1 X222.657 Y123.096 E871.65312
G1 X222.657 Y123.718 E871.68726
G1 X126.28 Y27.341 E879.16717
G1 X125.657 Y27.341 E879.20136
G1 X222.657 Y124.341 E886.72962
G1 X222.657 Y124.963 E886.76375
G1 X125.035 Y27.341 E894.34029
G1 X124.413 Y27.341 E894.37442
G1 X222.657 Y125.585 E901.99923
